X:1
T:Title
%%score ( 1 2 ) { 3 | 4 }
L:1/8
Q:1/4=110
M:4/2
K:F
V:1 treble nm="Grand Piano, Staff"
V:2 treble 
V:3 treble nm="Choir Pad, Zurich, SM"
V:4 bass 
V:1
 FG [FA]2- [FA][FA] [GB]2 [FA]2 [FA]4 [EG]2 | .A4 z4 z8 | %2
w: By~Hans~Georg~N�geli~(1773\-1836) * * * * * * * *||
 [Fc]2 [Fd]2- [Fd][Ec] [FB]2 [FA]2 [Fc]2- [Fc][FB] [FA]2 | [EG]2 F2- F[FG] [FA]2 [EG]2 F6- | %4
w: ||
 F4 z4 z8 |] %5
w: |
V:2
 x16 | E-[EG] F2- FF [FG]2 [Ec]2 [FA]6 | x16 | x16 | x16 |] %5
V:3
 A,B, C2- CC C2 C2 C6 | C[K:bass]B, A,2- A,A, C2 C2 C6 | A,2 B,2- B,F, F,2[K:treble] C2 C2- CD C2 | %3
 B,2 A,2- A,D C2 B,2 A,6- | A,4 z4 z8 |] %5
V:4
 F,2 F,2- F,F, E,2 F,2 C,6 | C,2 D,2- D,D, C,2 C,2 F,6 | F,2 B,,2- B,,C, D,2 F,2 A,,2- A,,B,, C,2 | %3
 C,2 D,2- D,B,, C,2 C,2 F,6- | F,4 z4 z8 |] %5

